X: 144
T: Taiping nian
%%abc-version 2.0
%%abcx-abcm2ps-target-version 5.9.1 (29 Sep 2008)
%%abc-creator hum2abc beta
%%abcx-conversion-date 2013/10/02 07:52:29
%%abc-edited-by Helmut Schaffrath
%%humdrum-veritas 2310415862
%%humdrum-veritas-data 1041735488
%%continueall 1
%%barnumbers 0
L: 1/8
M: 2/4
K: Eb
FF2G [I:setbarnb 1]| 
B3e | 
c B G F | 
B2E G | 
F4 | 
FF2G | 
B3e | 
c B G F | 
B B E G | 
F4 | 
C2B2 | 
B2G F | 
E2E2 | 
F G F E | 
CE2C | 
B,4 | 
C E C E | 
F4 | 
G2F E | 
C C E C | 
c B A G | 
B4 |]  



